packages/foundations/assets/icons/functional/images/file/notebook_32.svg

<svg width="32" height="32" viewBox="0 0 32 32" fill="none" xmlns="http://www.w3.org/2000/svg">
<g clip-path="url(#clip0_185_980)">
<path fill-rule="evenodd" clip-rule="evenodd" d="M24.1176 2C26.0106 2 27.5 3.63779 27.5 5.60885V26.5886C27.5 28.4501 26.0912 30 24.298 30H9.88241C7.9889 30 6.5 28.3618 6.5 26.3912V22H5.52828C4.96038 22 4.5 21.5523 4.5 21C4.5 20.4477 4.96038 20 5.52828 20H6.5V12H5.52828C4.96038 12 4.5 11.5523 4.5 11C4.5 10.4477 4.96038 10 5.52828 10H6.5V5.41035C6.5 3.6129 7.81258 2.10718 9.51784 2.00547L9.70201 2H24.1176ZM12.5 3.994L9.70201 3.99494C9.07152 3.99494 8.51574 4.60626 8.51574 5.41035L8.515 10H9.47172C10.0396 10 10.5 10.4477 10.5 11C10.5 11.5523 10.0396 12 9.47172 12H8.515V20H9.47172C10.0396 20 10.5 20.4477 10.5 21C10.5 21.5523 10.0396 22 9.47172 22H8.515L8.51574 26.3912C8.51574 27.2507 9.07984 27.9219 9.75469 27.9979L9.88241 28.0051L12.5 28.0051L12.5 3.994ZM14.5 28.005L24.298 28.0051C24.9276 28.0051 25.4843 27.3926 25.4843 26.5886V5.60885C25.4843 4.69544 24.8472 3.99494 24.1176 3.99494L14.5 3.99394L14.5 28.005ZM22.6039 19C23.0988 19 23.5 19.4477 23.5 20C23.5 20.5523 23.0988 21 22.6039 21H17.3961C16.9012 21 16.5 20.5523 16.5 20C16.5 19.4477 16.9012 19 17.3961 19H22.6039ZM22.6039 15C23.0988 15 23.5 15.4477 23.5 16C23.5 16.5523 23.0988 17 22.6039 17H17.3961C16.9012 17 16.5 16.5523 16.5 16C16.5 15.4477 16.9012 15 17.3961 15H22.6039ZM22.6039 11C23.0988 11 23.5 11.4477 23.5 12C23.5 12.5523 23.0988 13 22.6039 13H17.3961C16.9012 13 16.5 12.5523 16.5 12C16.5 11.4477 16.9012 11 17.3961 11H22.6039Z" fill="#1A1C1F"/>
</g>
<defs>
<clipPath id="clip0_185_980">
<rect width="32" height="32" fill="white"/>
</clipPath>
</defs>
</svg>

<svg xmlns="http://www.w3.org/2000/svg" width="32" height="32" fill="none"><g clip-path="url(#a)"><path fill="#1A1C1F" fill-rule="evenodd" d="M24.118 2C26.01 2 27.5 3.638 27.5 5.609v20.98C27.5 28.45 26.091 30 24.298 30H9.882C7.99 30 6.5 28.362 6.5 26.391V22h-.972C4.96 22 4.5 21.552 4.5 21s.46-1 1.028-1H6.5v-8h-.972C4.96 12 4.5 11.552 4.5 11s.46-1 1.028-1H6.5V5.41c0-1.797 1.313-3.303 3.018-3.405L9.702 2zM12.5 3.994H9.702c-.63 0-1.186.612-1.186 1.416L8.515 10h.957c.568 0 1.028.448 1.028 1s-.46 1-1.028 1h-.957v8h.957c.568 0 1.028.448 1.028 1s-.46 1-1.028 1h-.957v4.391c0 .86.565 1.53 1.24 1.607l.127.007H12.5zm2 24.011h9.798c.63 0 1.186-.612 1.186-1.416V5.609c0-.914-.637-1.614-1.366-1.614L14.5 3.994zM22.604 19c.495 0 .896.448.896 1s-.401 1-.896 1h-5.208c-.495 0-.896-.448-.896-1s.401-1 .896-1zm0-4c.495 0 .896.448.896 1s-.401 1-.896 1h-5.208c-.495 0-.896-.448-.896-1s.401-1 .896-1zm0-4c.495 0 .896.448.896 1s-.401 1-.896 1h-5.208c-.495 0-.896-.448-.896-1s.401-1 .896-1z" clip-rule="evenodd"/></g><defs><clipPath id="a"><path fill="#fff" d="M0 0h32v32H0z"/></clipPath></defs></svg>
